svgs/thin/dryer.svg

<svg xmlns="http://www.w3.org/2000/svg" viewBox="0 0 448 512"><!-- Font Awesome Pro 6.0.0-alpha2 by @fontawesome - https://fontawesome.com License - https://fontawesome.com/license (Commercial License) --><path d="M384 0H64C28.652 0 0 28.654 0 64V448C0 483.346 28.652 512 64 512H384C419.348 512 448 483.346 448 448V64C448 28.654 419.348 0 384 0ZM432 448C432 474.467 410.469 496 384 496H64C37.531 496 16 474.467 16 448V64C16 37.533 37.531 16 64 16H384C410.469 16 432 37.533 432 64V448ZM112 96C112 87.162 104.836 80 96 80S80 87.162 80 96C80 104.836 87.164 112 96 112S112 104.836 112 96ZM160 112C168.836 112 176 104.836 176 96C176 87.162 168.836 80 160 80S144 87.162 144 96C144 104.836 151.164 112 160 112ZM224 168C148.891 168 88 228.889 88 304S148.891 440 224 440S360 379.111 360 304S299.109 168 224 168ZM224 424C160.57 424 109.016 374.381 104.809 312H184C188.406 312 192 308.406 192 304S188.406 296 184 296H104.809C109.016 233.619 160.57 184 224 184C290.168 184 344 237.832 344 304S290.168 424 224 424Z"/></svg>

<svg xmlns="http://www.w3.org/2000/svg" viewBox="0 0 448 512"><!--! Font Awesome Pro 6.3.0 by @fontawesome - https://fontawesome.com License - https://fontawesome.com/license (Commercial License) Copyright 2023 Fonticons, Inc. --><path d="M384 0H64C28.65 0 0 28.65 0 64v384c0 35.35 28.65 64 64 64h320c35.35 0 64-28.65 64-64V64C448 28.65 419.3 0 384 0zM432 448c0 26.47-21.53 48-48 48H64c-26.47 0-48-21.53-48-48V64c0-26.47 21.53-48 48-48h320c26.47 0 48 21.53 48 48V448zM112 96c0-8.838-7.164-16-16-16S80 87.16 80 96c0 8.836 7.164 16 16 16S112 104.8 112 96zM160 112c8.836 0 16-7.164 16-16c0-8.838-7.164-16-16-16S144 87.16 144 96C144 104.8 151.2 112 160 112zM224 168c-75.11 0-136 60.89-136 136s60.89 136 136 136s136-60.89 136-136S299.1 168 224 168zM224 424c-63.43 0-114.1-49.62-119.2-112H184C188.4 312 192 308.4 192 304S188.4 296 184 296H104.8C109 233.6 160.6 184 224 184c66.17 0 120 53.83 120 120S290.2 424 224 424z"/></svg>
